static/img/chickensoft/go_dot_test.svg

<svg clip-rule="evenodd" fill-rule="evenodd" stroke-linejoin="round" stroke-miterlimit="2" viewBox="0 0 512 512" xmlns="http://www.w3.org/2000/svg" xmlns:xlink="http://www.w3.org/1999/xlink"><clipPath id="a"><path clip-rule="evenodd" d="m82.654 223.645 161.334 73.865h24.024l161.334-73.865h96.76v-233.882h-536.12v233.882z"/></clipPath><path d="m247.92 325.256v182.721l-170.274-66.593 1.731-98.331 115.441 53.389zm11.921 0v182.721l170.273-66.593-1.731-98.331-115.441 53.389zm-18.408-18.452-50.588 71.361-170.504-81.93 53.904-65.976zm24.894 0 50.589 71.361 170.503-81.93-53.904-65.976z" fill="#c7a172" fill-rule="nonzero" transform="translate(2.11992 -.47822)"/><g transform="matrix(1.03628 0 0 1.03628 -11.359 -16.65999)"><path d="m82.654 223.645 161.334 73.865h24.024l161.334-73.865h96.76v-233.882h-536.12v233.882z" fill="none"/><g clip-path="url(#a)"><path d="m939 689.675c0-25.816-15.847-46.775-35.366-46.775h-118.268c-19.519 0-35.366 20.959-35.366 46.775v93.55c0 25.816 15.847 46.775 35.366 46.775h118.268c19.519 0 35.366-20.959 35.366-46.775z" fill="#00c853" transform="matrix(1.44753 0 0 1.0944629577 -964.39416524 -608.96397281)"/><path d="m830.233 767.516-42.536-42.536-18.395 18.395 60.931 60.93 94.767-94.767-18.395-18.395z" fill="#fff" transform="matrix(.86484561639 0 0 .86484561639 -474.60936197 -415.80412208)"/><path d="m297.179 87.038c0-6.686-5.428-12.114-12.113-12.114h-58.035c-6.686 0-12.114 5.428-12.114 12.114v24.227c0 6.686 5.428 12.113 12.114 12.113h58.035c6.685 0 12.113-5.427 12.113-12.113z" fill="#00c853" transform="matrix(.964991 0 0 .964991 67.3903 6.41685)"/><circle cx="223.093" cy="151.181" fill="#fff" r="19.001" transform="matrix(.73196 0 0 .73196 120.977 50.2267)"/><circle cx="223.093" cy="151.181" fill="#fff" r="19.001" transform="matrix(.73196 0 0 .73196 68.5243 50.2267)"/><g fill="#00c853"><circle cx="243.374" cy="35.929" r="21.239" transform="matrix(.51642458356 .51642458356 -.51642458356 .51642458356 256.040544702 -106.529093915)"/><path d="m304.638 40.795h13.367v103.01h-13.367z" transform="matrix(.68235189104 .68235189104 -.47272400113 .47272400113 170.024141935 -194.006493056)"/><path d="m68.597 140.507h-15.019v42.48h15.019v13.669h33.575v-69.818h-33.575z" transform="matrix(.964991 0 0 .964991 11.0081 16.084)"/><path d="m68.597 140.507h-15.019v42.48h15.019v13.669h33.575v-69.818h-33.575z" transform="matrix(-.964991 0 0 .964991 505.083 16.084)"/></g></g></g></svg>

<?xml version="1.0" encoding="UTF-8" standalone="no"?>
<!DOCTYPE svg PUBLIC "-//W3C//DTD SVG 1.1//EN" "http://www.w3.org/Graphics/SVG/1.1/DTD/svg11.dtd">
<svg width="100%" height="100%" viewBox="0 0 512 512" version="1.1" xmlns="http://www.w3.org/2000/svg" xmlns:xlink="http://www.w3.org/1999/xlink" xml:space="preserve" xmlns:serif="http://www.serif.com/" style="fill-rule:evenodd;clip-rule:evenodd;stroke-linejoin:round;stroke-miterlimit:2;">
    <g id="Package-Icons" serif:id="Package Icons" transform="matrix(1,0,0,1,0,2.34131)">
        <g id="Box" transform="matrix(1,0,0,1,2.11992,-2.81953)">
            <path d="M247.92,325.256L247.92,507.977L77.646,441.384L79.377,343.053L194.818,396.442L247.92,325.256ZM259.841,325.256L259.841,507.977L430.114,441.384L428.383,343.053L312.942,396.442L259.841,325.256ZM241.433,306.804L190.845,378.165L20.341,296.235L74.245,230.259L241.433,306.804ZM266.327,306.804L316.916,378.165L487.419,296.235L433.515,230.259L266.327,306.804Z" style="fill:rgb(199,161,114);fill-rule:nonzero;"/>
        </g>
        <g id="Clip-Window" serif:id="Clip Window" transform="matrix(1.03628,0,0,1.03628,-11.359,-19.0013)">
            <path d="M82.654,223.645L243.988,297.51L268.012,297.51L429.346,223.645L526.106,223.645L526.106,-10.237L-10.014,-10.237L-10.014,223.645L82.654,223.645Z" style="fill:none;"/>
            <clipPath id="_clip1">
                <path d="M82.654,223.645L243.988,297.51L268.012,297.51L429.346,223.645L526.106,223.645L526.106,-10.237L-10.014,-10.237L-10.014,223.645L82.654,223.645Z"/>
            </clipPath>
            <g clip-path="url(#_clip1)">
                <g id="GoDotTest">
                    <g transform="matrix(1.44753,0,0,1.44753,-682.838,-765.041)">
                        <g transform="matrix(1,0,0,0.75609,-194.508,107.823)">
                            <path d="M939,689.675C939,663.859 923.153,642.9 903.634,642.9L785.366,642.9C765.847,642.9 750,663.859 750,689.675L750,783.225C750,809.041 765.847,830 785.366,830L903.634,830C923.153,830 939,809.041 939,783.225L939,689.675Z" style="fill:rgb(0,200,83);"/>
                        </g>
                        <g transform="matrix(0.597463,0,0,0.597463,143.851,241.264)">
                            <path d="M830.233,767.516L787.697,724.98L769.302,743.375L830.233,804.305L925,709.538L906.605,691.143L830.233,767.516Z" style="fill:white;"/>
                        </g>
                    </g>
                    <g transform="matrix(0.964991,0,0,0.964991,67.3903,6.41685)">
                        <path d="M297.179,87.038C297.179,80.352 291.751,74.924 285.066,74.924L227.031,74.924C220.345,74.924 214.917,80.352 214.917,87.038L214.917,111.265C214.917,117.951 220.345,123.378 227.031,123.378L285.066,123.378C291.751,123.378 297.179,117.951 297.179,111.265L297.179,87.038Z" style="fill:rgb(0,200,83);"/>
                    </g>
                    <g transform="matrix(0.73196,0,0,0.73196,120.977,50.2267)">
                        <circle cx="223.093" cy="151.181" r="19.001" style="fill:white;"/>
                    </g>
                    <g transform="matrix(0.73196,0,0,0.73196,68.5243,50.2267)">
                        <circle cx="223.093" cy="151.181" r="19.001" style="fill:white;"/>
                    </g>
                    <g transform="matrix(0.964991,0,0,0.964991,11.0081,4.0251)">
                        <g transform="matrix(0.53516,0.53516,-0.53516,0.53516,253.922,-114.565)">
                            <circle cx="243.374" cy="35.929" r="21.239" style="fill:rgb(0,200,83);"/>
                        </g>
                        <g transform="matrix(0.707107,0.707107,-0.489874,0.489874,164.785,-205.216)">
                            <rect x="304.638" y="40.795" width="13.367" height="103.01" style="fill:rgb(0,200,83);"/>
                        </g>
                    </g>
                    <g transform="matrix(0.964991,0,0,0.964991,11.0081,16.084)">
                        <path d="M68.597,140.507L53.578,140.507L53.578,182.987L68.597,182.987L68.597,196.656L102.172,196.656L102.172,126.838L68.597,126.838L68.597,140.507Z" style="fill:rgb(0,200,83);"/>
                    </g>
                    <g transform="matrix(-0.964991,0,0,0.964991,505.083,16.084)">
                        <path d="M68.597,140.507L53.578,140.507L53.578,182.987L68.597,182.987L68.597,196.656L102.172,196.656L102.172,126.838L68.597,126.838L68.597,140.507Z" style="fill:rgb(0,200,83);"/>
                    </g>
                </g>
            </g>
        </g>
    </g>
</svg>
